X:9
T:Rambler. WR1776.09, The
B:Wm.Randall CDs 1776
Z:vmp.Steve Mansfield 2015
M:6/8
L:1/8
W:Cast off 1 Cu. & turn the 3d Lady cast off & turn
W:the 3d Gebt: hands 6 round right and left at top
Q:3/8=90
K:A
aga edc | def Bcd | cBc FGA | GFG E3 |
aga edc | def edc | dcB ABG | A3 A,3 :|
|: Ace =gfg | fed def | edc dFB | G3 E3 |
aga edc | def edc | dcB EAG | A3 A,3 :|

